icon/fa/person-pregnant.svg

<svg xmlns="http://www.w3.org/2000/svg" viewBox="0 0 320 512"><!--! Font Awesome Free 6.1.2 by @fontawesome - https://fontawesome.com License - https://fontawesome.com/license/free (Icons: CC BY 4.0, Fonts: SIL OFL 1.1, Code: MIT License) Copyright 2022 Fonticons, Inc.--><path d="M112 48c0-26.51 21.5-48 48-48s48 21.49 48 48-21.5 48-48 48-48-21.49-48-48zM88 382.1c-13.8-2.7-24-15.2-24-30.1v-55.1l-4.57 7.6c-9.1 15.1-28.76 20-43.91 10.9-15.15-9.1-20.051-28.7-10.947-43.9l58.277-96.9c14.99-25 40.35-41.6 68.65-46.5 4.1.2 8.3-.1 12.5-.1h16c1.4 0 2.8.1 4.1.3 35.7 2.9 65.4 29.3 72.1 65l6.1 32.4c44.3 8.6 77.7 47.5 77.7 94.3v32c0 17.7-14.3 32-32 32h-56v96c0 17.7-14.3 32-32 32s-32-14.3-32-32v-96h-16v96c0 17.7-14.3 32-32 32s-32-14.3-32-32v-97.9z"/></svg>

<svg xmlns="http://www.w3.org/2000/svg" viewBox="0 0 320 512" height="1em" width="1em">
<!--! Font Awesome Free 6.1.2 by @fontawesome - https://fontawesome.com License - https://fontawesome.com/license/free (Icons: CC BY 4.0, Fonts: SIL OFL 1.1, Code: MIT License) Copyright 2022 Fonticons, Inc.-->
  <path d="M112 48C112 21.49 133.5 0 160 0C186.5 0 208 21.49 208 48C208 74.51 186.5 96 160 96C133.5 96 112 74.51 112 48zM88 382.1C74.2 379.4 64 366.9 64 352V296.9L59.43 304.5C50.33 319.6 30.67 324.5 15.52 315.4C.3696 306.3-4.531 286.7 4.573 271.5L62.85 174.6C77.84 149.6 103.2 133 131.5 128.1C135.6 128.3 139.8 128 144 128H160C161.4 128 162.8 128.1 164.1 128.3C199.8 131.2 229.5 157.6 236.2 193.3L242.3 225.7C286.6 234.3 320 273.2 320 320V352C320 369.7 305.7 384 288 384H232V480C232 497.7 217.7 512 200 512C182.3 512 168 497.7 168 480V384H152V480C152 497.7 137.7 512 120 512C102.3 512 88 497.7 88 480L88 382.1z"/>
</svg>
